X: 24360
T: Loungeval
R: waltz
M: 3/4
K: Dmajor
|:A3 BA2|A2d2f2|B3cB2|B2e2g2|
a3ge/c/|a3ge/c/|1 B2c2B2|A6:|2 A2B2c2|d6||
f2g2f2|f2e2d2|d2c2a2|c4A2|
g2a2g2|g2f2e2|e2d2a2|f4A2|
f2g2f2|f2e2d2|d2c2a2|c4A2|
a3ge/c/|a3ge/c/|A2B2c2|d6|
|:A2B2c2|d2e2d2|d2c2B2|c6|
a3ge/c/|a3ge/c/|1 B2c2B2|A6:|2 A2B2c2|d6||

